swiss/communes/0095.svg

<?xml version="1.0" encoding="UTF-8" standalone="no"?>
<!-- Created with Inkscape (http://www.inkscape.org/) -->
<svg
   xmlns:svg="http://www.w3.org/2000/svg"
   xmlns="http://www.w3.org/2000/svg"
   xmlns:xlink="http://www.w3.org/1999/xlink"
   version="1.0"
   width="238.24271"
   height="279.06418"
   id="svg2780">
  <defs
     id="defs2782" />
  <g
     transform="translate(-6.4020661,-793.80816)"
     id="layer1">
    <path
       d="M 7.402066,794.80816 L 11.697383,975.22208 C 14.765459,1104.0891 236.28138,1104.0891 239.34946,975.22208 L 243.64478,794.80816 L 7.402066,794.80816 z"
       id="path3282"
       style="fill:#c63121;fill-opacity:1;fill-rule:evenodd;stroke:none;stroke-width:1.99999988;stroke-linecap:butt;stroke-miterlimit:4;stroke-dashoffset:0;stroke-opacity:1" />
    <path
       d="M 124.03125,21.1875 C 74.721989,21.1875 34.687502,61.221988 34.6875,110.53125 C 34.6875,112.93906 34.781412,115.32765 34.96875,117.6875 L 63.03125,117.6875 C 62.757975,115.33781 62.59375,112.95381 62.59375,110.53125 C 62.593751,76.621091 90.121091,49.09375 124.03125,49.09375 C 157.94141,49.093749 185.4375,76.621091 185.4375,110.53125 C 185.4375,112.95381 185.27298,115.33781 185,117.6875 L 213.0625,117.6875 C 213.2497,115.32765 213.34375,112.93906 213.34375,110.53125 C 213.34375,61.221989 173.34051,21.1875 124.03125,21.1875 z"
       transform="translate(0,804.33069)"
       id="path3609"
       style="opacity:1;color:#000000;fill:#ffffff;fill-opacity:1;fill-rule:evenodd;stroke:#000000;stroke-width:1pt;stroke-linecap:butt;stroke-linejoin:miter;marker:none;marker-start:none;marker-mid:none;marker-end:none;stroke-miterlimit:4;stroke-dasharray:none;stroke-dashoffset:0;stroke-opacity:1;visibility:visible;display:inline;overflow:visible;enable-background:accumulate" />
    <g
       id="g3353">
      <path
         d="M 34.164056,913.33692 C 30.12183,952.32463 13.568198,927.41831 25.934758,915.45659 C 21.733493,908.01977 25.21015,900.63532 29.924721,900.7436 C 34.325531,900.84181 35.433071,904.64621 34.164056,913.33692 z"
         id="path2495"
         style="color:#000000;fill:#ffffff;fill-opacity:1;fill-rule:evenodd;stroke:#000000;stroke-width:1px;stroke-linecap:butt;stroke-linejoin:miter;marker:none;marker-start:none;marker-mid:none;marker-end:none;stroke-miterlimit:4;stroke-dasharray:none;stroke-dashoffset:0;stroke-opacity:1;visibility:visible;display:inline;overflow:visible;enable-background:accumulate" />
      <path
         d="M 63.15774,915.45291 C 65.133093,943.71933 84.22337,937.38511 71.563371,917.66075 C 75.764636,910.22393 72.111646,902.75131 67.397075,902.85959 C 62.996265,902.9578 63.29939,906.93854 63.15774,915.45291 z"
         id="path3271"
         style="color:#000000;fill:#ffffff;fill-opacity:1;fill-rule:evenodd;stroke:#000000;stroke-width:1px;stroke-linecap:butt;stroke-linejoin:miter;marker:none;marker-start:none;marker-mid:none;marker-end:none;stroke-miterlimit:4;stroke-dasharray:none;stroke-dashoffset:0;stroke-opacity:1;visibility:visible;display:inline;overflow:visible;enable-background:accumulate" />
      <path
         d="M 28.92723,913.96035 C 27.32564,911.18387 27.585403,906.46568 29.301289,906.47917 C 31.653356,906.49675 32.607806,910.6299 32.044388,914.83316 L 49.126416,921.56622 L 66.722317,916.41756 C 66.049733,912.11394 65.882366,909.02833 68.115259,909.11898 C 70.775787,909.22699 69.985907,912.455 69.669408,916.46035 L 78.677077,929.9202 L 51.440139,950.25295 L 24.687894,936.40389 L 19.326382,920.06998 L 28.92723,913.96035 z"
         id="path2497"
         style="fill:#000000;fill-opacity:1;fill-rule:evenodd;stroke:none;stroke-width:1px;stroke-linecap:butt;stroke-linejoin:miter;stroke-opacity:1" />
      <path
         d="M 77.117109,925.58384 C 72.884904,923.5439 68.931255,925.45065 66.420302,928.34644 C 62.7626,932.56473 57.186796,931.46932 55.826451,932.17711 C 53.149606,933.56988 49.970944,938.22382 41.55707,933.10413 C 36.965355,930.31016 35.791383,929.60703 29.520408,931.6898 L 31.487178,922.27229 C 28.439244,922.34337 23.948988,920.80031 21.471456,916.8339 C 19.718828,930.75468 28.133091,938.00976 31.419153,926.8663 C 36.056285,911.1412 46.557879,923.09983 41.380553,933.25615 C 26.986305,948.95221 65.854324,958.40378 55.6994,933.11914 C 52.308737,923.01147 63.650496,910.78045 66.522094,929.4247 C 68.355659,941.32937 77.217247,931.64306 77.117109,925.58384 z"
         id="path3328"
         style="fill:#ffffff;fill-opacity:1;fill-rule:evenodd;stroke:none;stroke-width:1px;stroke-linecap:butt;stroke-linejoin:miter;stroke-opacity:1" />
      <path
         d="M 73.064346,932.41918 C 70.564655,934.85805 66.717402,929.30332 68.826857,924.68338 C 75.106214,910.93088 61.065548,909.63241 58.353205,917.2022 C 49.153183,914.76376 47.312732,922.27949 53.149606,930.79301 C 59.213846,939.63815 56.793368,946.81109 49.251102,946.81109 C 41.58415,946.81109 39.106174,940.84087 43.640217,934.15954 C 46.575423,929.83424 56.12065,916.51664 41.271177,916.2047 C 35.433071,905.38221 28.448609,910.6299 29.675348,919.9453 C 30.676109,927.54471 28.021958,932.62743 25.186639,931.41644 C 22.15151,930.12011 22.280255,923.43795 23.189579,920.20018 C 23.999774,917.31537 26.916087,916.13805 29.84375,915.01819 C 30.014438,914.26457 30.264666,913.58815 30.5625,912.98694 C 21.134697,913.32307 10.877207,921.19236 17.717643,927.42546 C 19.139289,928.72088 20.998415,928.65777 20.697932,931.66581 C 19.534081,943.31675 33.108535,946.06297 32.66782,932.91268 C 32.13608,917.04631 47.090344,919.89473 40.149,931.91518 C 38.325968,935.07216 30.469908,937.75067 30.922211,942.88758 C 31.641741,951.05944 41.094556,957.23809 47.63018,950.74282 C 48.994489,949.38694 49.783156,950.50355 51.495457,951.36625 C 66.848876,959.10266 67.636182,941.1105 63.215972,937.57322 C 49.911863,926.9266 59.282582,917.8261 63.96409,922.81309 C 65.511816,924.46181 65.74063,931.1784 65.176606,935.36581 C 63.651776,946.6864 76.861229,946.56172 76.55741,934.65828 C 76.505982,932.64335 78.059646,931.67785 79.306505,930.92106 C 86.331077,926.65749 77.783561,914.74409 69.5625,915.04944 C 70.475733,916.54811 70.775788,918.76219 69.9375,921.73694 C 73.764446,922.53005 78.046567,927.55821 73.064346,932.41918 z"
         id="path3324"
         style="fill:#ffffff;fill-opacity:1;fill-rule:evenodd;stroke:#000000;stroke-width:1px;stroke-linecap:butt;stroke-linejoin:miter;stroke-opacity:1" />
    </g>
    <use
       transform="translate(149.44069,-0.600672)"
       id="use3372"
       x="0"
       y="0"
       width="248.03149"
       height="248.03149"
       xlink:href="#g3353" />
    <path
       d="M 148.49663,959.51848 C 148.49663,975.65443 137.8511,1025.1695 124.97394,1025.1695 C 112.09679,1025.1695 101.84026,975.65443 101.84026,959.51848 C 101.84026,943.38254 112.29129,930.2867 125.16845,930.2867 C 138.0456,930.2867 148.49663,943.38254 148.49663,959.51848 z"
       id="path2399"
       style="color:#000000;fill:#005a29;fill-opacity:1;fill-rule:evenodd;stroke:#000000;stroke-width:1.0000001pt;stroke-linecap:butt;stroke-linejoin:miter;marker:none;marker-start:none;marker-mid:none;marker-end:none;stroke-miterlimit:4;stroke-dashoffset:0;stroke-opacity:1;visibility:visible;display:inline;overflow:visible;enable-background:accumulate" />
    <path
       d="M 121.51501,990.02758 C 126.97073,1005.2132 128.33618,1040.4993 116.21739,1044.8532 C 104.09862,1049.207 83.062103,1020.9882 77.606386,1005.8026 C 72.150667,990.61692 77.558365,974.75874 89.677146,970.40485 C 101.79592,966.05096 116.05929,974.84194 121.51501,990.02758 z"
       id="path3617"
       style="color:#000000;fill:#005a29;fill-opacity:1;fill-rule:evenodd;stroke:#000000;stroke-width:1.0000001pt;stroke-linecap:butt;stroke-linejoin:miter;marker:none;marker-start:none;marker-mid:none;marker-end:none;stroke-miterlimit:4;stroke-dashoffset:0;stroke-opacity:1;visibility:visible;display:inline;overflow:visible;enable-background:accumulate" />
    <path
       d="M 67.75,209.28125 C 61.4699,209.30035 55.687441,211.57695 51.71875,216.125 C 44.781921,224.07447 45.531598,236.56286 52.71875,246.65625 C 69.771186,258.17215 90.577441,264.88588 112.03125,266.875 C 118.0305,255.99791 100.70803,227.91207 89.0625,217.75 C 82.603628,212.11392 74.867446,209.25961 67.75,209.28125 z"
       transform="translate(0,804.33069)"
       id="path3621"
       style="color:#000000;fill:#005a29;fill-opacity:1;fill-rule:evenodd;stroke:#000000;stroke-width:1.0000001pt;stroke-linecap:butt;stroke-linejoin:miter;marker:none;marker-start:none;marker-mid:none;marker-end:none;stroke-miterlimit:4;stroke-dashoffset:0;stroke-opacity:1;visibility:visible;display:inline;overflow:visible;enable-background:accumulate" />
    <use
       transform="matrix(-1,0,0,1,251.15173,0)"
       id="use3625"
       style="fill:#005a29;fill-opacity:1"
       x="0"
       y="0"
       width="248.03149"
       height="248.03149"
       xlink:href="#path3617" />
    <use
       transform="matrix(-1,0,0,1,251.15173,0)"
       id="use3627"
       style="fill:#005a29;fill-opacity:1"
       x="0"
       y="0"
       width="248.03149"
       height="248.03149"
       xlink:href="#path3621" />
    <path
       d="M 125.15625,207.4375 C 112.27909,207.4375 101.84375,220.5516 101.84375,236.6875 C 101.84375,246.16369 105.37816,258.34355 110.90625,266.78125 C 120.26569,267.72283 129.75616,267.75058 139.125,266.875 C 144.79907,258.43396 148.5,246.19854 148.5,236.6875 C 148.5,220.5516 138.0334,207.43751 125.15625,207.4375 z"
       transform="translate(0,804.33069)"
       id="path3623"
       style="color:#000000;fill:#005a29;fill-opacity:1;fill-rule:evenodd;stroke:#000000;stroke-width:1.0000001pt;stroke-linecap:butt;stroke-linejoin:miter;marker:none;marker-start:none;marker-mid:none;marker-end:none;stroke-miterlimit:4;stroke-dashoffset:0;stroke-opacity:1;visibility:visible;display:inline;overflow:visible;enable-background:accumulate" />
    <path
       d="M 7.402066,794.80816 L 11.697383,975.22208 C 14.765459,1104.0891 236.28138,1104.0891 239.34946,975.22208 L 243.64478,794.80816 L 7.402066,794.80816 z"
       id="path3253"
       style="fill:none;fill-opacity:1;fill-rule:evenodd;stroke:#000000;stroke-width:1.99999988;stroke-linecap:butt;stroke-miterlimit:4;stroke-dashoffset:0;stroke-opacity:1" />
  </g>
</svg>

<svg xmlns="http://www.w3.org/2000/svg" xmlns:xlink="http://www.w3.org/1999/xlink" version="1.0" width="238.243" height="279.064"><g transform="translate(-6.402 -793.808)"><path d="m7.402 794.808 4.295 180.414c3.068 128.867 224.584 128.867 227.652 0l4.296-180.414H7.402z" style="fill:#c63121;fill-opacity:1;fill-rule:evenodd;stroke:none;stroke-width:1.99999988;stroke-linecap:butt;stroke-miterlimit:4;stroke-dashoffset:0;stroke-opacity:1"/><path d="M124.031 21.188c-49.309 0-89.343 40.034-89.344 89.343 0 2.408.094 4.797.282 7.156H63.03a61.86 61.86 0 0 1-.437-7.156c0-33.91 27.527-61.437 61.437-61.437s61.406 27.527 61.406 61.437c0 2.423-.164 4.807-.437 7.156h28.063c.187-2.36.28-4.748.28-7.156 0-49.309-40.002-89.344-89.312-89.344z" transform="translate(0 804.33)" style="opacity:1;color:#000;fill:#fff;fill-opacity:1;fill-rule:evenodd;stroke:#000;stroke-width:1pt;stroke-linecap:butt;stroke-linejoin:miter;marker:none;marker-start:none;marker-mid:none;marker-end:none;stroke-miterlimit:4;stroke-dasharray:none;stroke-dashoffset:0;stroke-opacity:1;visibility:visible;display:inline;overflow:visible;enable-background:accumulate"/><g id="a"><path d="M34.164 913.337c-4.042 38.988-20.596 14.081-8.23 2.12-4.2-7.437-.724-14.822 3.99-14.713 4.402.098 5.51 3.902 4.24 12.593z" style="color:#000;fill:#fff;fill-opacity:1;fill-rule:evenodd;stroke:#000;stroke-width:1px;stroke-linecap:butt;stroke-linejoin:miter;marker:none;marker-start:none;marker-mid:none;marker-end:none;stroke-miterlimit:4;stroke-dasharray:none;stroke-dashoffset:0;stroke-opacity:1;visibility:visible;display:inline;overflow:visible;enable-background:accumulate"/><path d="M63.158 915.453c1.975 28.266 21.065 21.932 8.405 2.208 4.202-7.437.549-14.91-4.166-14.801-4.4.098-4.098 4.079-4.24 12.593z" style="color:#000;fill:#fff;fill-opacity:1;fill-rule:evenodd;stroke:#000;stroke-width:1px;stroke-linecap:butt;stroke-linejoin:miter;marker:none;marker-start:none;marker-mid:none;marker-end:none;stroke-miterlimit:4;stroke-dasharray:none;stroke-dashoffset:0;stroke-opacity:1;visibility:visible;display:inline;overflow:visible;enable-background:accumulate"/><path d="M28.927 913.96c-1.601-2.776-1.342-7.494.374-7.48 2.352.017 3.307 4.15 2.743 8.353l17.082 6.733 17.596-5.148c-.672-4.304-.84-7.39 1.393-7.299 2.66.108 1.87 3.336 1.554 7.341l9.008 13.46-27.237 20.333-26.752-13.85-5.362-16.333 9.601-6.11z" style="fill:#000;fill-opacity:1;fill-rule:evenodd;stroke:none;stroke-width:1px;stroke-linecap:butt;stroke-linejoin:miter;stroke-opacity:1"/><path d="M77.117 925.584c-4.232-2.04-8.186-.133-10.697 2.762-3.657 4.219-9.233 3.123-10.594 3.831-2.676 1.393-5.855 6.047-14.269.927-4.592-2.794-5.766-3.497-12.037-1.414l1.967-9.418c-3.048.071-7.538-1.472-10.016-5.438-1.752 13.92 6.662 21.176 9.948 10.032 4.637-15.725 15.139-3.766 9.962 6.39-14.395 15.696 24.473 25.148 14.318-.137-3.39-10.108 7.951-22.339 10.823-3.694 1.834 11.904 10.695 2.218 10.595-3.841z" style="fill:#fff;fill-opacity:1;fill-rule:evenodd;stroke:none;stroke-width:1px;stroke-linecap:butt;stroke-linejoin:miter;stroke-opacity:1"/><path d="M73.064 932.42c-2.5 2.438-6.347-3.117-4.237-7.737 6.28-13.752-7.761-15.05-10.474-7.48-9.2-2.44-11.04 5.076-5.203 13.59 6.064 8.845 3.643 16.018-3.899 16.018-7.667 0-10.145-5.97-5.61-12.651 2.934-4.326 12.48-17.643-2.37-17.955-5.838-10.823-12.822-5.575-11.596 3.74 1.001 7.6-1.653 12.682-4.488 11.471-3.035-1.296-2.907-7.978-1.997-11.216.81-2.885 3.726-4.062 6.654-5.182.17-.753.42-1.43.718-2.031-9.427.336-19.685 8.205-12.844 14.438 1.421 1.296 3.28 1.233 2.98 4.24-1.164 11.652 12.41 14.398 11.97 1.248-.532-15.867 14.422-13.018 7.481-.998-1.823 3.157-9.68 5.836-9.227 10.973.72 8.171 10.173 14.35 16.708 7.855 1.364-1.356 2.153-.24 3.865.623 15.354 7.737 16.141-10.255 11.721-13.793-13.304-10.646-3.933-19.747.748-14.76 1.548 1.649 1.777 8.365 1.213 12.553-1.525 11.32 11.684 11.196 11.38-.708-.051-2.015 1.503-2.98 2.75-3.737 7.024-4.264-1.523-16.177-9.745-15.872.914 1.5 1.214 3.713.376 6.688 3.826.793 8.109 5.821 3.126 10.682z" style="fill:#fff;fill-opacity:1;fill-rule:evenodd;stroke:#000;stroke-width:1px;stroke-linecap:butt;stroke-linejoin:miter;stroke-opacity:1"/></g><use transform="translate(149.44 -.6)" width="248.031" height="248.031" xlink:href="#a"/><path d="M148.497 959.518c0 16.136-10.646 65.651-23.523 65.651-12.877 0-23.134-49.515-23.134-65.65 0-16.136 10.451-29.232 23.328-29.232 12.878 0 23.329 13.096 23.329 29.231z" style="color:#000;fill:#005a29;fill-opacity:1;fill-rule:evenodd;stroke:#000;stroke-width:1.0000001pt;stroke-linecap:butt;stroke-linejoin:miter;marker:none;marker-start:none;marker-mid:none;marker-end:none;stroke-miterlimit:4;stroke-dashoffset:0;stroke-opacity:1;visibility:visible;display:inline;overflow:visible;enable-background:accumulate"/><path d="M121.515 990.028c5.456 15.185 6.821 50.471-5.298 54.825-12.118 4.354-33.155-23.865-38.61-39.05-5.456-15.186-.049-31.044 12.07-35.398 12.119-4.354 26.382 4.437 31.838 19.623z" id="b" style="color:#000;fill:#005a29;fill-opacity:1;fill-rule:evenodd;stroke:#000;stroke-width:1.0000001pt;stroke-linecap:butt;stroke-linejoin:miter;marker:none;marker-start:none;marker-mid:none;marker-end:none;stroke-miterlimit:4;stroke-dashoffset:0;stroke-opacity:1;visibility:visible;display:inline;overflow:visible;enable-background:accumulate"/><path d="M67.75 209.281c-6.28.02-12.063 2.296-16.031 6.844-6.937 7.95-6.187 20.438 1 30.531 17.052 11.516 37.858 18.23 59.312 20.219 6-10.877-11.323-38.963-22.969-49.125-6.458-5.636-14.195-8.49-21.312-8.469z" transform="translate(0 804.33)" id="c" style="color:#000;fill:#005a29;fill-opacity:1;fill-rule:evenodd;stroke:#000;stroke-width:1.0000001pt;stroke-linecap:butt;stroke-linejoin:miter;marker:none;marker-start:none;marker-mid:none;marker-end:none;stroke-miterlimit:4;stroke-dashoffset:0;stroke-opacity:1;visibility:visible;display:inline;overflow:visible;enable-background:accumulate"/><use transform="matrix(-1 0 0 1 251.152 0)" style="fill:#005a29;fill-opacity:1" width="248.031" height="248.031" xlink:href="#b"/><use transform="matrix(-1 0 0 1 251.152 0)" style="fill:#005a29;fill-opacity:1" width="248.031" height="248.031" xlink:href="#c"/><path d="M125.156 207.438c-12.877 0-23.312 13.114-23.312 29.25 0 9.476 3.534 21.656 9.062 30.093 9.36.942 18.85.97 28.219.094 5.674-8.441 9.375-20.676 9.375-30.188 0-16.135-10.467-29.25-23.344-29.25z" transform="translate(0 804.33)" style="color:#000;fill:#005a29;fill-opacity:1;fill-rule:evenodd;stroke:#000;stroke-width:1.0000001pt;stroke-linecap:butt;stroke-linejoin:miter;marker:none;marker-start:none;marker-mid:none;marker-end:none;stroke-miterlimit:4;stroke-dashoffset:0;stroke-opacity:1;visibility:visible;display:inline;overflow:visible;enable-background:accumulate"/><path d="m7.402 794.808 4.295 180.414c3.068 128.867 224.584 128.867 227.652 0l4.296-180.414H7.402z" style="fill:none;fill-opacity:1;fill-rule:evenodd;stroke:#000;stroke-width:1.99999988;stroke-linecap:butt;stroke-miterlimit:4;stroke-dashoffset:0;stroke-opacity:1"/></g></svg>
